main-pages/gulp-scss-starter/dist/img/default/offer/services13.svg

<svg width="26" height="17" viewBox="0 0 26 17" fill="none" xmlns="http://www.w3.org/2000/svg">
<path d="M9.74219 15.6094C9.5491 15.6094 9.39258 15.7659 9.39258 15.959C9.39258 16.1521 9.5491 16.3086 9.74219 16.3086C9.93527 16.3086 10.0918 16.1521 10.0918 15.959C10.0918 15.7659 9.93527 15.6094 9.74219 15.6094ZM9.74219 15.6094L10.7471 12.0654L9.74219 8.18457M17.1191 15.6094L18.125 12.0654L17.1191 8.18457M7.2832 3.92188L11.4912 11.21M14.6582 3.92188L18.8662 11.21M25.1504 3.3215L18.9141 14.1233C15.1696 12.6081 10.9827 12.6081 7.23828 14.1233L1 3.31857C4.83745 1.77279 8.93814 0.985479 13.0752 1.00021C17.2125 0.985322 21.3134 1.77366 25.1504 3.3215ZM17.4629 15.959C17.4629 16.1521 17.3064 16.3086 17.1133 16.3086C16.9202 16.3086 16.7637 16.1521 16.7637 15.959C16.7637 15.7659 16.9202 15.6094 17.1133 15.6094C17.3064 15.6094 17.4629 15.7659 17.4629 15.959Z" stroke="#616161" stroke-linecap="round" stroke-linejoin="round"/>
</svg>

<svg width="26" height="17" viewBox="0 0 26 17" fill="none" xmlns="http://www.w3.org/2000/svg"><path d="M9.742 15.61a.35.35 0 100 .699.35.35 0 000-.7zm0 0l1.005-3.545-1.005-3.88m7.377 7.424l1.006-3.544-1.006-3.88M7.283 3.922l4.208 7.288m3.167-7.288l4.208 7.288m6.284-7.889l-6.236 10.802a15.563 15.563 0 00-11.676 0L1 3.32A32.013 32.013 0 0113.075 1 31.97 31.97 0 0125.15 3.321zM17.463 15.96a.35.35 0 11-.7 0 .35.35 0 01.7 0z" stroke="#616161" stroke-linecap="round" stroke-linejoin="round"/></svg>
